icons/plexis/48/netgen.svg

<svg viewBox="0 0 48 48" xmlns="http://www.w3.org/2000/svg" xmlns:xlink="http://www.w3.org/1999/xlink">
  <linearGradient id="a" gradientTransform="matrix(0 -1 1 0 -.0000015 47.999998)" gradientUnits="userSpaceOnUse" x1="1" x2="47">
    <stop offset="0" stop-color="#575757"/>
    <stop offset="1" stop-color="#616161"/>
  </linearGradient>
  <path d="m47 24c0 22.703-.297 23-23 23-22.703 0-23-.297-23-23 0-22.703.297-23 23-23 22.703 0 23 .297 23 23z" fill="url(#a)"/>
  <path d="m25 10l-14 24h28zm0 4l4.115 7c-2.743 0-5.487 0-8.23 0zm-4.5 9c3 0 6 0 9 0l-4.5 8m-6-6.65l4.281 7.65h-8.828m16.547-7.65l4.547 7.65h-8.828" fill-rule="evenodd" opacity=".1"/>
  <path d="m24 9l-14 24h28zm0 4l4.115 7c-2.743 0-5.487 0-8.23 0zm-4.5 9c3 0 6 0 9 0l-4.5 8m-6-6.65l4.281 7.65h-8.828m16.547-7.65l4.547 7.65h-8.828" fill="#eceb6c" fill-rule="evenodd"/>
</svg>

<svg xmlns="http://www.w3.org/2000/svg" viewBox="0 0 48 48">
 <defs>
  <linearGradient id="linearGradient3764" x1="1" x2="47" gradientUnits="userSpaceOnUse" gradientTransform="matrix(0,-1,1,0,-1.5e-6,47.999998)">
   <stop style="stop-color:#575757;stop-opacity:1"/>
   <stop offset="1" style="stop-color:#616161;stop-opacity:1"/>
  </linearGradient>
 </defs>
 <g>
  
  
  
 </g>
 <g>
  <path d="m 47,24 C 47,46.703 46.703,47 24,47 1.297,47 1,46.703 1,24 1,1.297 1.297,1 24,1 46.703,1 47,1.297 47,24 z" style="fill:url(#linearGradient3764);fill-opacity:1"/>
 </g>
 <g>
  
 </g>
 <path d="m 25 10 -14 24 28 0 z m 0 4 4.115 7 c -2.743 0 -5.487 0 -8.23 0 z m -4.5 9 c 3 0 6 0 9 0 l -4.5 8 m -6 -6.65 4.281 7.65 -8.828 0 m 16.547 -7.65 l 4.547 7.65 -8.828 0" mix-blend-mode="normal" isolation="auto" white-space="normal" solid-opacity="1" solid-color="#000000" style="visibility:visible;shape-rendering:auto;color-interpolation-filters:linearRGB;fill:#000;opacity:0.1;image-rendering:auto;fill-opacity:1;stroke:none;display:inline;color:#000;fill-rule:evenodd;color-rendering:auto;color-interpolation:sRGB"/>
 <path d="m 24,9 -14,24 28,0 z m 0,4 4.115,7 c -2.743,0 -5.487,0 -8.23,0 z m -4.5,9 c 3,0 6,0 9,0 L 24,30 M 18,23.35 22.281,31 13.453,31 M 30,23.35 34.547,31 25.719,31" mix-blend-mode="normal" isolation="auto" white-space="normal" solid-color="#000000" solid-opacity="1" style="visibility:visible;shape-rendering:auto;color-interpolation-filters:linearRGB;fill:#eceb6c;opacity:1;image-rendering:auto;fill-opacity:1;stroke:none;display:inline;color:#000;fill-rule:evenodd;color-rendering:auto;color-interpolation:sRGB"/>
</svg>
